X:1
T:Merry May the Maid Be
M:2/4
L:1/8
K:A
 A| cc cc| d2 dd| c2 cc| c e2 c| cc cc| d2 dd| e2 EE| A A2| A| cc EE|\
 FF EE| EE EE| E A2 A| cc EE| FF EE| EE EE| EA||
